X:1
T:Acht Marienlieder
T:Mutter! Ach in meinem Herzen
T:Max Reger
T:Text: J. P. Heuberger
T:Mutter! Ach in meinem Herzen
T:Nr. 1 aus Acht Marienlieder, Op 61 d
T:CPDL - Creative Commons Attribution Non Commercial 3.0
T:CPDL - Creative Commons Attribution Non Commercial 3.0
C:Max Reger
Z:J. P. Heuberger
Z:CPDL - Creative Commons Attribution Non Commercial 3.0
%%score [ 1 2 3 4 ]
L:1/8
Q:1/4=80
M:3/4
K:E
V:1 treble nm="Sopran"
V:2 treble nm="Alt"
V:3 treble-8 nm="Tenor"
V:4 bass nm="Bass"
V:1
!p!"^Etwas langsam, doch nie schleppend"!>(! B4 E2!>)! | z2!mf!!<(! e2 d2!<)! | =d4 c2 | %3
w: 1.~Mut- ter!|Ach, in|mei- nem|
!>(! f4 B2!>)! | z2!p!!<(! e2 G2 | B4!<)! AG | (G2!>(! c2) d2!>)! |!p! ^B4 z2 | z6 | %9
w: Her- zen|zit- tert|noch kein _|Früh- * lings-|1.~strahl,||
!mf!"^cresc." c4 A2 | =d4 B2 | e2 (c2 e2) |!f!!>(! ^A6 | ^A2!>)!!p!!<(! B2 c2 | d4!<)! c2 | %15
w: will's nicht|kei- men,|will's nicht _|blü-|hen, ist noch|1.~~al- les|
[Q:1/4=72]"^poco ritardando"!>(! B4 A2 | (G4!>)! ^^F2) | %17
w: tot und|kahl, _|
!p![Q:1/4=80]"^a tempo""^molto espressivo"!<(! (G2 A2) B2 | (c2 d2)!<)!"^molto" e2 | %19
w: ist _ noch|al- * les|
!p![Q:1/4=72]"^ritardando"!>(! G4 F2!>)! | !fermata!E4 z2 |] %21
w: tot und|kahl!|
V:2
!p!!>(! E4 B,2!>)! | z2!mf!!<(! B2 B2!<)! | B4 A2 |!>(! A4 G2!>)! | z2!p!!<(! E2 E2 | G4!<)! F2 | %6
w: 2.~Lö- se|doch die|har- te|Rin- de,|die mein|Inn'- res|
 (F2!>(! E2) F2!>)! |!p! G4 z2 | z2!mf! (G2 E2) |"^cresc." (E2 ^E2 F2) | (F2 ^^F2) G2 | %11
w: mir _ um-|2.~starrt;|wärm' _|die _ _|See- * le,|
 G2 (A2 G2) |!f!!>(! (G4 ^^F2) | ^F2!>)!!p!!<(! F2 F2 | F4!<)! E2 |!>(! F4 F2 | F4!>)! z2 | %17
w: die mit _|Sehn- *|sucht ih- rem|2.~~Lenz ent-|ge- gen|harrt,|
!p!!<(! (=B,2 F2) G2 | (G2 ^^F2)!<)!"^molto" ^F2 |!p!!>(! E4 D2!>)! | !fermata!B,4 z2 |] %21
w: ih- * rem|Lenz _ ent-|ge- gen|harrt.|
V:3
!p!!>(! G4 G2!>)! | z2!mf!!<(! e2 e2!<)! | (^e2 g2) c2 |!>(! =c4 B2!>)! | z2!p!!<(! B2 ^c2 | %5
w: 3.~Las- se|Mai- en-|glöck- * lein|sprie- ßen,|Him- mels-|
 d4!<)! d2 | G4!>(! Bc!>)! |!p! d4 z2 |!mf! (=B4 G2) |"^cresc." (A4 c2) | B4 B2 | c2 c4 | %12
w: blu- men|licht und *|3.~klar;|gib _|mir _|Keusch- heit,|De- mut,|
!f!!>(! d6 | d2!>)!!p!!<(! B2 ^A2 | =A4!<)! A2 |!>(! =d4 c2 | ^B4!>)! z2 |!p!!<(! (e2 d2) =d2 | %18
w: Mil-|de, mach' mich|3.~fromm und|rein und|wahr,|mach' _ mich|
 c4!<)!"^molto" c2 |!p!!>(! (B2 ^A2) =A2!>)! | !fermata!G4 z2 |] %21
w: fromm und|rein _ und|wahr.|
V:4
!p!!>(! E,4 E,2!>)! | z2!mf!!<(! G,2 G,2!<)! | (A,2 ^E,2) F,2 |!>(! D,4 =E,2!>)! | %4
w: ||||
w: ||||
w: ||||
 z2!p!!<(! G,,2 A,,2 | B,,4!<)! ^B,,2 | C,4!>(! =B,,A,,!>)! |!p! G,,4 z2 | z2 z2!mf! (C,2 | %9
w: ||||1.~willl's|
w: ||||2.~wärm'|
w: ||||3.~gib|
"^cresc." A,,4) F,2 | B,,4 E,2 | C,2 (F,2 E,2) |!f!!>(! D,6 | D,2!>)!!p!!<(! D,2 C,2 | %14
w: _ nicht|||||
w: _ die|||||
w: _ mir|||||
 ^B,,4!<)! C,2 |!>(! =D,4 D,2 | ^D,4!>)! z2 |!p!"^molto espressivo"!<(! E,4 E,2 | %18
w: ||||
w: ||||
w: ||||
 A,,4!<)!"^molto" ^A,,2 |!p!!>(! B,,4 B,,2!>)! | !fermata!E,4 z2 |] %21
w: |||
w: |||
w: |||

